!!!!SEGMENT: pl-cz--d-ii-34--partytura_elsner-jozef--nunc-dimittis-partytura-partytura.krn
!!!cenid: 18xx:9a
!!!COM: Elsner, Józef
!!!COM-rismID: pe30000957
!!!CDT: 1769/06/01-1854/04/18
!!!CNT: Polish
!!!OTL: Nunc dimittis [partytura]
!!!PDT:
!!!AGN: Sacred
!!!YEC: Copyright 2022 Narodowy Instytut Fryderyka Chopina (https://polishscores.org)
!!!YEM: License CC-BY-4.0 (https://creativecommons.org/licenses/by/4.0)
!!!SMS-siglum: PL-CZ
!!!SMS-shelfmark: D II-34
!!!SMS-shelfwork: W
!!!NIFC-rismSourceID: 1001049920
!!!NIFC-rismChildID: 1001049920
!!!NIFC-islandoraID:
!!!URL-pdf-islandora:
!!!URL-scan:
!!!IIIF:
!!!ONB-nifc:
!!!AIN: 1 alto 1 bass 1 soprn 2 tenor
!!!key:
**kern	**text	**dynam	**kern	**text	**dynam	**kern	**text	**dynam	**kern	**text	**dynam	**kern	**text	**dynam
*part5	*	*	*part4	*	*	*part3	*	*	*part2	*	*	*part1	*	*
*staff5	*	*	*staff4	*	*	*staff3	*	*	*staff2	*	*	*staff1	*	*
*Ibass	*	*	*Itenor	*	*	*Itenor	*	*	*Ialto	*	*	*Isoprn	*	*
*I"BASSO .	*	*	*I"TENORE II .	*	*	*I"TENORE I .	*	*	*I"ALTO .	*	*	*I"SOPRANO .	*	*
*clefF4	*	*	*clefC4	*	*	*clefC4	*	*	*clefC3	*	*	*clefC1	*	*
*k[f#]	*	*	*k[f#]	*	*	*k[f#]	*	*	*k[f#]	*	*	*k[f#]	*	*
*e:	*	*	*e:	*	*	*e:	*	*	*e:	*	*	*e:	*	*
*M2/2	*	*	*M2/2	*	*	*M2/2	*	*	*M2/2	*	*	*M2/2	*	*
*met(c|)	*	*	*met(c|)	*	*	*met(c|)	*	*	*met(c|)	*	*	*met(c|)	*	*
=1	=1	=1	=1	=1	=1	=1	=1	=1	=1	=1	=1	=1	=1	=1
!	!	!	!	!	!	!	!	!	!	!	!	!LO:TX:a:B:t=Andante dolce .	!	!
1BB;	Nunc	<	1B;	Nunc	<	1B;	Nunc	<	1d#X;	Nunc	<	1b;	Nunc	<
.	.	[	.	.	[	.	.	[	.	.	[	.	.	[
.	.	>	.	.	>	.	.	>	.	.	>	.	.	>
.	.	]	.	.	]	.	.	]	.	.	]	.	.	]
=2	=2	=2	=2	=2	=2	=2	=2	=2	=2	=2	=2	=2	=2	=2
2.E	.	.	2.G	.	.	2.B	.	.	2.e	.	.	2b	nunc	.
.	.	.	.	.	.	.	.	.	.	.	.	2ee	di-	.
4E	.	.	4B	.	.	4B	.	.	4g	.	.	.	.	.
=3	=3	=3	=3	=3	=3	=3	=3	=3	=3	=3	=3	=3	=3	=3
2.F#	.	.	2.A	.	.	2.B	.	.	2.a	.	.	(>2ee	-mit-	.
.	.	.	.	.	.	.	.	.	.	.	.	4dd#X)	.	.
4E	.	.	4B	.	.	4B	.	.	4g	.	.	4ee	-tis	.
=4	=4	=4	=4	=4	=4	=4	=4	=4	=4	=4	=4	=4	=4	=4
2D#X	.	.	2A	.	.	2B	.	.	2f#	.	.	2ff#	ser-	.
(<4C#X	.	.	2A	.	.	(>4c#X	.	.	(>4e	.	.	2a	-vum	.
4D#)	.	.	.	.	.	4B)	.	.	4f#)	.	.	.	.	.
=5	=5	=5	=5	=5	=5	=5	=5	=5	=5	=5	=5	=5	=5	=5
2E	.	.	2E	.	.	2B	.	.	2f#	.	.	2a	tu-	.
4E	.	.	4E	.	.	4B	.	.	4e	.	.	4g	-um	.
4r	.	.	4r	.	.	4r	.	.	4r	.	.	4r	.	.
=6	=6	=6	=6	=6	=6	=6	=6	=6	=6	=6	=6	=6	=6	=6
2.C	.	.	2.G	.	f	2.c	.	f	2.e	Do-	f	2.ee	Do-	f
4C	.	.	4G	.	.	4c	.	.	4e	-mi-	.	4ee	-mi-	.
=7	=7	=7	=7	=7	=7	=7	=7	=7	=7	=7	=7	=7	=7	=7
2BB	.	.	2G	.	.	2d	.	.	2g	-ne	.	2dd	-ne	.
2r	.	.	2r	.	.	[2d	.	.	2r	.	.	[2dd	Do-	.
=8	=8	=8	=8	=8	=8	=8	=8	=8	=8	=8	=8	=8	=8	=8
2BB	.	.	2G	Do-	.	2d]	.	.	2g	Do-	.	2.dd]	.	.
2AA	.	.	2A	-mi-	.	2d	.	.	2f#	-mi-	.	.	.	.
.	.	.	.	.	.	.	.	.	.	.	.	4cc	-mi-	.
=9	=9	=9	=9	=9	=9	=9	=9	=9	=9	=9	=9	=9	=9	=9
2GG	.	.	2B	-ne	.	2d	.	.	2g	-ne	.	2b	-ne	.
2r	.	.	2r	.	.	2r	.	.	4r	.	.	2r	.	.
!	!	!	!	!	!	!	!	!	!LO:TX:a:i:t=dolce	!	!	!	!	!
.	.	.	.	.	.	.	.	.	4b	se-	.	.	.	.
=10	=10	=10	=10	=10	=10	=10	=10	=10	=10	=10	=10	=10	=10	=10
!!LO:LB:g=original
1r	.	.	1r	.	.	1r	.	.	4cc	-cun-	.	2r	.	.
.	.	.	.	.	.	.	.	.	4b	-dúm	.	.	.	.
.	.	.	.	.	.	.	.	.	4a	ver-	.	4r	.	.
.	.	.	.	.	.	.	.	.	4g	-bum	.	4b	se-	.
=11	=11	=11	=11	=11	=11	=11	=11	=11	=11	=11	=11	=11	=11	=11
1r	.	.	2r	.	.	1r	.	.	(>4a	tu-	.	4cc	-cun-	.
.	.	.	.	.	.	.	.	.	4g)	.	.	4b	-dum	.
.	.	.	4r	.	.	.	.	.	4f#	-um	.	4a	ver-	.
.	.	.	4B	se-	.	.	.	.	4e	in	.	4g	-bum	.
=12	=12	=12	=12	=12	=12	=12	=12	=12	=12	=12	=12	=12	=12	=12
1r	.	.	4c	-cun-	.	2r	.	.	4d#X	pa-	.	(<4f#	tu-	.
.	.	.	4B	-dum	.	.	.	.	4e	-ce	.	4g)	.	.
.	.	.	4A	ver-	.	4r	.	.	[2e	pa-	.	4cc	-um	.
.	.	.	4G	-bum	.	4B	se-	.	.	.	.	4b	in	.
=13	=13	=13	=13	=13	=13	=13	=13	=13	=13	=13	=13	=13	=13	=13
2r	.	.	(<4A	tu-	.	4c	-cun-	.	2e]	.	.	4a	pa-	.
.	.	.	4G)	.	.	4B	-dum	.	.	.	.	4b	-ce	.
4r	.	.	4F#	-um	.	4A	ver-	.	4d#X	.	.	[2b	pa-	.
4E	se-	.	4E	in	.	4G	-bum	.	[4e	.	.	.	.	.
=14	=14	=14	=14	=14	=14	=14	=14	=14	=14	=14	=14	=14	=14	=14
4D	-cun-	.	1E	pa-	.	(<4G#X	tu-	.	4e]	.	.	4b]	.	.
4C	-dum	.	.	.	.	4A)	.	.	4a	.	.	4cc	.	.
4BB	ver-	.	.	.	.	4B	-um	.	4g#X	.	.	4dd	.	.
4AA	-bum	.	.	.	.	4c	in	.	4a	.	.	4cc	.	.
=15	=15	=15	=15	=15	=15	=15	=15	=15	=15	=15	=15	=15	=15	=15
2GG#X	tu-	.	2E	.	.	2B	pa-	.	2b	.	.	2dd	.	.
4AA	-um	.	4E	-ce	.	4c	-ce	.	4a	-ce	.	4cc	-ce	.
4C	in	.	4A	in	.	4e	in	.	4e	in	.	4a	in	.
=16	=16	=16	=16	=16	=16	=16	=16	=16	=16	=16	=16	=16	=16	=16
1BB	pa-	.	(<2.B	pa-	.	(>2.e	pa-	.	(>2.e	pa-	.	(>2.g	pa-	.
.	.	.	8AL	.	.	8f#L	.	.	8d#XL	.	.	8f#L	.	.
.	.	.	8GJ)	.	.	8eJ)	.	.	8eJ)	.	.	8gJ)	.	.
=17	=17	=17	=17	=17	=17	=17	=17	=17	=17	=17	=17	=17	=17	=17
2BB	-ce	.	2F#	-ce	.	2d#X	-ce	.	2f#	-ce	.	2a	-ce	.
2r	.	.	4r	.	.	2r	.	.	2r	.	.	2r	.	.
.	.	.	4B	se-	.	.	.	.	.	.	.	.	.	.
=18	=18	=18	=18	=18	=18	=18	=18	=18	=18	=18	=18	=18	=18	=18
!!LO:LB:g=original
1r	.	.	4c	-cun-	.	2r	.	.	1r	.	.	1r	.	.
.	.	.	4B	-dum	.	.	.	.	.	.	.	.	.	.
.	.	.	4A	ver-	.	4r	.	.	.	.	.	.	.	.
.	.	.	4G	-bum	.	4B	se-	.	.	.	.	.	.	.
=19	=19	=19	=19	=19	=19	=19	=19	=19	=19	=19	=19	=19	=19	=19
1r	.	.	(<4A	tu-	.	4c	-cun-	.	2r	.	.	1r	.	.
.	.	.	4G)	.	.	4B	-dum	.	.	.	.	.	.	.
.	.	.	4F#	-um	.	4A	ver-	.	4r	.	.	.	.	.
.	.	.	4E	in	.	4G	-bum	.	4b	se-	.	.	.	.
=20	=20	=20	=20	=20	=20	=20	=20	=20	=20	=20	=20	=20	=20	=20
1r	.	.	4D#X	pa-	.	(<4F#	tu-	.	4cc	-cun-	.	2r	.	.
.	.	.	4E	-ce	.	4G)	.	.	4b	-dum	.	.	.	.
.	.	.	[2E	pa-	.	4c	-um	.	4a	ver-	.	4r	.	.
.	.	.	.	.	.	4B	in	.	4g	-bum	.	4b	se-	.
=21	=21	=21	=21	=21	=21	=21	=21	=21	=21	=21	=21	=21	=21	=21
2r	.	.	2E]	.	.	4A	pa-	.	(>4a	tu-	.	4cc	-cun-	.
.	.	.	.	.	.	4B	-ce	.	4g)	.	.	4b	-dum	.
4r	.	.	4D#X	.	.	2B	pa-	.	4f#	-um	.	4a	ver-	.
4E	se-	.	[4E	.	.	.	.	.	4e	in	.	4g	-bum	.
=22	=22	=22	=22	=22	=22	=22	=22	=22	=22	=22	=22	=22	=22	=22
4D	-cun-	.	4E]	.	.	(>4B	.	.	[1e	pa-	.	(>4g#X	tu-	.
4C	-dum	.	4A	.	.	4c	.	.	.	.	.	4a)	.	.
4BB	ver-	.	4G#X	.	.	4d	.	.	.	.	.	4b	-um	.
4AA	-bum	.	4A	.	.	4c)	.	.	.	.	.	4cc	in	.
=23	=23	=23	=23	=23	=23	=23	=23	=23	=23	=23	=23	=23	=23	=23
2GG#X	tu-	.	2B	.	.	2B	.	.	2e]	.	.	2dd	pa-	.
4AA	-um	.	4A	-ce	.	4c	-ce	.	4e	-ce	.	4cc	-ce	.
4C	in	.	4A	in	.	4A	in	.	4e	in	.	4ee	in	.
=24	=24	=24	=24	=24	=24	=24	=24	=24	=24	=24	=24	=24	=24	=24
1BB	pa-	.	(>2G	pa-	.	1B	pa-	.	(>2g	pa-	.	(>2.ee	pa-	.
.	.	.	2A)	.	.	.	.	.	2f#)	.	.	.	.	.
.	.	.	.	.	.	.	.	.	.	.	.	4dd#X)	.	.
=25	=25	=25	=25	=25	=25	=25	=25	=25	=25	=25	=25	=25	=25	=25
4E	-ce	.	2G	-ce	.	2B	-ce	.	2e	-ce	.	2ee	-ce	.
!LO:TX:a:i:t=risoluto	!	!	!	!	!	!	!	!	!	!	!	!	!	!
4E	quia	.	.	.	.	.	.	.	.	.	.	.	.	.
4E	.	.	2r	.	.	2r	.	.	2r	.	.	2r	.	.
4E	vi-	.	.	.	.	.	.	.	.	.	.	.	.	.
!!LO:PB:g=original
=26	=26	=26	=26	=26	=26	=26	=26	=26	=26	=26	=26	=26	=26	=26
2G	-de-	.	4r	.	.	1r	.	.	1r	.	.	1r	.	.
.	.	.	4G	quia	.	.	.	.	.	.	.	.	.	.
2Fn	-runt	.	4G	.	.	.	.	.	.	.	.	.	.	.
.	.	.	4G	vi-	.	.	.	.	.	.	.	.	.	.
=27	=27	=27	=27	=27	=27	=27	=27	=27	=27	=27	=27	=27	=27	=27
4.E	o-	.	2G	-de-	.	4r	.	.	1r	.	.	1r	.	.
.	.	.	.	.	.	4c	quia	.	.	.	.	.	.	.
8E	-cu-	.	.	.	.	.	.	.	.	.	.	.	.	.
2E	-li	.	2G	-runt	.	4c	.	.	.	.	.	.	.	.
.	.	.	.	.	.	4c	vi-	.	.	.	.	.	.	.
=28	=28	=28	=28	=28	=28	=28	=28	=28	=28	=28	=28	=28	=28	=28
1D	me-	.	4.Fn	o-	.	4c	-de-	.	4r	.	.	1r	.	.
.	.	.	.	.	.	8BL	.	.	4g	quia	.	.	.	.
.	.	.	8F	-cu-	.	8AJ	.	.	.	.	.	.	.	.
.	.	.	2F	-li	.	2B	-runt	.	4g	.	.	.	.	.
.	.	.	.	.	.	.	.	.	4g	vi-	.	.	.	.
=29	=29	=29	=29	=29	=29	=29	=29	=29	=29	=29	=29	=29	=29	=29
2C	-i	.	4.E	o-	.	4.c	o-	.	2g	-de-	.	4r	.	.
.	.	.	.	.	.	.	.	.	.	.	.	4cc	quia	.
.	.	.	8G	-cu-	.	8d	-cu-	.	.	.	.	.	.	.
2C	vi-	.	2G	-li	.	2e	-li	.	2g	-runt	.	4cc	.	.
.	.	.	.	.	.	.	.	.	.	.	.	4cc	vi-	.
=30	=30	=30	=30	=30	=30	=30	=30	=30	=30	=30	=30	=30	=30	=30
4BB	-de-	.	4G	me-	.	4fn	me-	.	4.g	o-	.	4dd	-de-	.
4C	-runt	.	4G	-i	.	4e	-i	.	.	.	.	4cc	-runt	.
.	.	.	.	.	.	.	.	.	8g	-cu-	.	.	.	.
2r	.	.	[2c	o-	.	[2c	o-	.	2g	-li	.	[2ee	o-	.
=31	=31	=31	=31	=31	=31	=31	=31	=31	=31	=31	=31	=31	=31	=31
1C	vi-	.	4.c]	.	.	4.c]	.	.	[1g	me-	.	4.ee]	.	.
.	.	.	8B	-cu-	.	8d	-cu-	.	.	.	.	8dd	-cu-	.
.	.	.	2c	-li	.	2e	-li	.	.	.	.	2cc	-li	.
=32	=32	=32	=32	=32	=32	=32	=32	=32	=32	=32	=32	=32	=32	=32
4BB	-de-	.	4G	me-	.	4fn	me-	.	4g]	.	.	4dd	mei	.
4C	-runt	.	4G	-i	.	4e	-i	.	4g	-i	.	4cc	.	.
(<4AA	sa-	.	(>4A	sa-	.	(>4c	sa-	.	(>4cc	sa-	.	[2ffn	sa-	.
4AA-X	.	.	4B	.	.	4d	.	.	4b	.	.	.	.	.
=33	=33	=33	=33	=33	=33	=33	=33	=33	=33	=33	=33	=33	=33	=33
2GG)	.	.	4.B	.	.	4.d	.	.	4.dd	.	.	4.ff]	.	.
.	.	.	8c)	.	.	8c)	.	.	8g)	.	.	8ee	.	.
2GG	-lu-	.	4G	-lu-	.	2B	-lu-	.	2g	-lu-	.	2dd	-lu-	.
.	.	.	4Fn	.	.	.	.	.	.	.	.	.	.	.
!!LO:LB:g=original
=34	=34	=34	=34	=34	=34	=34	=34	=34	=34	=34	=34	=34	=34	=34
2GG	-ta-	.	(<4.E	-ta-	.	(>4.c	-ta-	.	(>4.g	-ta-	.	(>4.ee	-ta-	.
.	.	.	8G)	.	.	8d	.	.	8fn)	.	.	8dd)	.	.
2GG	-re	.	2G	-re	.	8e)	-re	.	2e	-re	.	2cc	-re	.
.	.	.	.	.	.	8cL	.	.	.	.	.	.	.	.
.	.	.	.	.	.	8e	.	.	.	.	.	.	.	.
.	.	.	.	.	.	8gJ	.	.	.	.	.	.	.	.
=35	=35	=35	=35	=35	=35	=35	=35	=35	=35	=35	=35	=35	=35	=35
1GG	tu-	.	1G	tu-	.	1B	tu-	.	2.g	tu-	.	1dd	tu-	.
.	.	.	.	.	.	.	.	.	4fn	.	.	.	.	.
=36	=36	=36	=36	=36	=36	=36	=36	=36	=36	=36	=36	=36	=36	=36
2C	-um	.	2G	-um	.	2c	-um	.	2e	-um	.	2cc	-um	.
(<4AA	Sa-	.	(>4c	Sa-	.	[2fn	Sa-	.	(>4a	Sa-	.	(>4cc	Sa-	.
4AA-X	.	.	4B	.	.	.	.	.	[4b	.	.	[4dd	.	.
=37	=37	=37	=37	=37	=37	=37	=37	=37	=37	=37	=37	=37	=37	=37
2GG)	.	.	4.d	.	.	4.f]	.	.	4.b]	.	.	4.dd]	.	.
.	.	.	8G)	.	.	8e	.	.	8cc)	.	.	8cc)	.	.
2GG	-lu-	.	2G	-lu-	.	2d	-lu-	.	(>4g	-lu-	.	2b	-lu-	.
.	.	.	.	.	.	.	.	.	4fn)	.	.	.	.	.
=38	=38	=38	=38	=38	=38	=38	=38	=38	=38	=38	=38	=38	=38	=38
2GG	-ta-	.	(<4.G	-ta-	.	(>4.e	-ta-	.	(>4.e	-ta-	.	(>4.cc	-ta-	.
.	.	.	8Fn)	.	.	8d)	.	.	8g)	.	.	8dd	.	.
2GG	-re	.	2E	-re	.	2c	-re	.	2g	-re	.	8ee)	.	.
.	.	.	.	.	.	.	.	.	.	.	.	8ccL	-re	.
.	.	.	.	.	.	.	.	.	.	.	.	8ee	.	.
.	.	.	.	.	.	.	.	.	.	.	.	8ggJ	.	.
=39	=39	=39	=39	=39	=39	=39	=39	=39	=39	=39	=39	=39	=39	=39
1GG	tu-	.	2.G	tu-	.	1d	tu-	.	1g	tu-	.	1b	tu-	.
.	.	.	4Fn	.	.	.	.	.	.	.	.	.	.	.
=40	=40	=40	=40	=40	=40	=40	=40	=40	=40	=40	=40	=40	=40	=40
4C	-um	.	2E	-um	.	2c	-um	.	2g	-um	.	2cc	-um	.
2E	quod	.	.	.	.	.	.	.	.	.	.	.	.	.
.	.	.	2r	.	.	2r	.	.	2r	.	.	2r	.	.
4E	pa-	.	.	.	.	.	.	.	.	.	.	.	.	.
=41	=41	=41	=41	=41	=41	=41	=41	=41	=41	=41	=41	=41	=41	=41
2G	-ra-	.	4r	.	.	1r	.	.	1r	.	.	1r	.	.
.	.	.	2G	quod	.	.	.	.	.	.	.	.	.	.
2Fn	-sti	.	.	.	.	.	.	.	.	.	.	.	.	.
.	.	.	4G	pa-	.	.	.	.	.	.	.	.	.	.
=42	=42	=42	=42	=42	=42	=42	=42	=42	=42	=42	=42	=42	=42	=42
2E	quod	.	2G	-ra-	.	4r	.	.	1r	.	.	1r	.	.
.	.	.	.	.	.	2c	quod	.	.	.	.	.	.	.
2E	pa-	.	2G	-sti	.	.	.	.	.	.	.	.	.	.
.	.	.	.	.	.	(>4c	pa-	.	.	.	.	.	.	.
!!LO:LB:g=original
=43	=43	=43	=43	=43	=43	=43	=43	=43	=43	=43	=43	=43	=43	=43
1D	-ra-	.	2Fn	an-	.	4c	-ra-	.	4r	.	.	1r	.	.
.	.	.	.	.	.	8BL	.	.	2g	quod	.	.	.	.
.	.	.	.	.	.	8AJ)	.	.	.	.	.	.	.	.
.	.	.	2F	-te	.	2B	-sti	.	.	.	.	.	.	.
.	.	.	.	.	.	.	.	.	4g	pa-	.	.	.	.
=44	=44	=44	=44	=44	=44	=44	=44	=44	=44	=44	=44	=44	=44	=44
2C	-sti	.	4.E	fa-	.	(>4.c	quod	.	2g	-ra-	.	4r	.	.
.	.	.	.	.	.	.	.	.	.	.	.	2cc	quod	.
.	.	.	8G	-ci-	.	8d)	.	.	.	.	.	.	.	.
2C	pa-	.	2G	-em	.	2e	pa-	.	2g	-sti	.	.	.	.
.	.	.	.	.	.	.	.	.	.	.	.	4cc	pa-	.
=45	=45	=45	=45	=45	=45	=45	=45	=45	=45	=45	=45	=45	=45	=45
4BB	-ra-	.	(<2G	an-	.	4fn	-ra-	.	[1g	an-	.	4dd	-ra-	.
4C	-sti	.	.	.	.	4e	-sti	.	.	.	.	4cc	-sti	.
2r	.	.	[2c)	.	.	[2c	an-	.	.	.	.	[2ee	an-	.
=46	=46	=46	=46	=46	=46	=46	=46	=46	=46	=46	=46	=46	=46	=46
2.C	an-	.	4.c]	.	.	4.c]	.	.	2g]	.	.	4.ee]	.	.
.	.	.	8B	.	.	8d	.	.	.	.	.	8dd	.	.
.	.	.	2c	-te	.	2e	-te	.	2g	-te	.	2cc	-te	.
4C	-te	.	.	.	.	.	.	.	.	.	.	.	.	.
=47	=47	=47	=47	=47	=47	=47	=47	=47	=47	=47	=47	=47	=47	=47
4.Fn	fa-	.	4.A	fa-	.	4.d	fa-	.	4.fn	fa-	.	4.cc	fa-	.
8F	-ci-	.	8A	-ci-	.	8d	-ci-	.	8f	-ci-	.	8dd	-ci-	.
2F	-em	.	2A	-em	.	2d	-em	.	(>4.f	-em	.	2dd	-em	.
.	.	.	.	.	.	.	.	.	8a)	.	.	.	.	.
=48	=48	=48	=48	=48	=48	=48	=48	=48	=48	=48	=48	=48	=48	=48
4.E	om-	.	4.B	om-	.	4.e	om-	.	4.g#X	om-	.	4.dd	om-	.
8E	-ni-	.	8A	-ni-	.	8e	-ni-	.	8a	-ni-	.	8cc	-ni-	.
2E	-um	.	2G#X	-um	.	(>4.e	-um	.	2b	-um	.	2b	-um	.
.	.	.	.	.	.	8d)	.	.	.	.	.	.	.	.
=49	=49	=49	=49	=49	=49	=49	=49	=49	=49	=49	=49	=49	=49	=49
2E	po-	.	(<4.A	po-	.	(>4.c	po-	.	(>4.a	po-	.	(>4.cc	po-	.
.	.	.	8E)	.	.	8d)	.	.	8g#X)	.	.	8b)	.	.
2Fn	-pu-	.	2c	-pu-	.	2c	-pu-	.	[2a	-pu-	.	2a	-pu-	.
=50	=50	=50	=50	=50	=50	=50	=50	=50	=50	=50	=50	=50	=50	=50
2D	-lo-	.	1B	-lo-	.	2fn	-lo-	.	2a]	-lo-	.	1b	-lo-	.
2E	.	.	.	.	.	4.d	.	.	2g#X	.	.	.	.	.
.	.	.	.	.	.	8e	.	.	.	.	.	.	.	.
=51	=51	=51	=51	=51	=51	=51	=51	=51	=51	=51	=51	=51	=51	=51
2AA	-rum	.	2c	-rum	.	2e	-rum	.	2a	-rum	.	2a	-rum	.
!	!	!	!	!	!	!	!	!	!LO:TX:a:t=problem&colon; w źródle łuk w t. 51 a-h, a w t. 52 (nestępny system) - końcówka łuku do g#	!	!	!	!	!
(>2Fn	om-	.	(>4A	om-	.	(>2d	om-	.	(>4a	om-	.	[2dd	om-	.
.	.	.	4G#X	.	.	.	.	.	4b	.	.	.	.	.
!!LO:PB:g=original
=52	=52	=52	=52	=52	=52	=52	=52	=52	=52	=52	=52	=52	=52	=52
4.E)	.	.	4.B)	.	.	4.e)	.	.	4.g#X)	.	.	4.dd]	.	.
8E	-ni-	.	8A	-ni-	.	8e	-ni-	.	8a	-ni-	.	8cc	-ni-	.
2E	-um	.	2G#X	-um	.	(>4.e	-um	.	2b	-um	.	2b	-um	.
.	.	.	.	.	.	8d)	.	.	.	.	.	.	.	.
=53	=53	=53	=53	=53	=53	=53	=53	=53	=53	=53	=53	=53	=53	=53
2E	-po-	.	(<4.A	-po-	.	(>4.c	-po-	.	(>4.a	po-	.	(>4.cc	-po-	.
.	.	.	8E)	.	.	8d)	.	.	8g#X)	.	.	8b)	.	.
2Fn	-pu-	.	2c	-pu-	.	2c	-pu-	.	[2a	-pu-	.	2a	-pu-	.
=54	=54	=54	=54	=54	=54	=54	=54	=54	=54	=54	=54	=54	=54	=54
(>2D	-lo-	.	1B	-lo-	.	(>2fn	-lo-	.	2a]	-lo-	.	1b	-lo-	.
2E)	.	.	.	.	.	4e	.	.	2g#X	.	.	.	.	.
.	.	.	.	.	.	4d)	.	.	.	.	.	.	.	.
=55	=55	=55	=55	=55	=55	=55	=55	=55	=55	=55	=55	=55	=55	=55
2A	-rum	.	2c	-rum	.	2c	-rum	.	2a	-rum	.	2a	-rum	.
2r	.	.	2r	.	.	2r	.	.	2r	.	.	2r	.	.
=56	=56	=56	=56	=56	=56	=56	=56	=56	=56	=56	=56	=56	=56	=56
1G^	lu-	.	1G^	lu-	.	1c^	lu-	.	1e^	lu-	.	1b-X^	lu-	.
=57	=57	=57	=57	=57	=57	=57	=57	=57	=57	=57	=57	=57	=57	=57
2.Fn	-men	.	2.A	-men	.	2.c	-men	.	2.f#	-men	.	2.a	-men	.
4r	.	.	4r	.	.	4r	.	.	4r	.	.	4r	.	.
=58	=58	=58	=58	=58	=58	=58	=58	=58	=58	=58	=58	=58	=58	=58
1A^	lu-	.	1A^	lu-	.	1d#X^	lu-	.	1f#X^	lu-	.	1cc^	lu-	.
=59	=59	=59	=59	=59	=59	=59	=59	=59	=59	=59	=59	=59	=59	=59
2.G#X	-men	.	2.B	-men	.	2.e	-men	.	2.b	-men	.	2.bn	-men	.
4r	.	.	4r	.	.	4r	.	.	4r	.	.	4r	.	.
=60	=60	=60	=60	=60	=60	=60	=60	=60	=60	=60	=60	=60	=60	=60
1B^	lu-	.	1B^	lu-	.	1e#X^	lu-	.	1g#X^	lu-	.	1dd^	lu-	.
=61	=61	=61	=61	=61	=61	=61	=61	=61	=61	=61	=61	=61	=61	=61
2.A#X	-men	.	2.c#X	-men	.	2.f#	-men	.	2.cc#X	-men	.	2.cc#X	-men	.
4A#	ad	.	4c#	ad	.	4f#	ad	.	4cc#	ad	.	4ee	ad	.
=62	=62	=62	=62	=62	=62	=62	=62	=62	=62	=62	=62	=62	=62	=62
4.B	re-	.	4.d	re-	.	4.f#	re-	.	4.b	re-	.	4.dd	re-	.
8B	-ve-	.	8d	-ve-	.	8f#	-ve-	.	8b	-ve-	.	8dd	-ve-	.
4.B	-la-	.	4.B	-la-	.	4.d	-la-	.	4.dd	-la-	.	4.ff#	-la-	.
8B	-ti-	.	8B	-ti-	.	8d	-ti-	.	8dd	-ti-	.	8ff#	-ti-	.
!!LO:LB:g=original
=63	=63	=63	=63	=63	=63	=63	=63	=63	=63	=63	=63	=63	=63	=63
2B	-o-	.	2B	-o-	.	2d	-o-	.	2f#	-o-	.	2b	-o-	.
2G	-nem	.	2B	-nem	.	2B	-nem	.	2g	-nem	.	2dd	-nem	.
=64	=64	=64	=64	=64	=64	=64	=64	=64	=64	=64	=64	=64	=64	=64
2E	gen-	.	(>2B	gen-	.	2.c#X	gen-	.	2g	gen-	.	2.cc#X	gen-	.
2F#	-ti-	.	4A#X)	.	.	.	.	.	2f#	-ti-	.	.	.	.
.	.	.	8BL	-ti-	.	8dL	-ti-	.	.	.	.	8ddL	-ti-	.
.	.	.	8A#J	.	.	8eJ	.	.	.	.	.	8cc#J	.	.
=65	=65	=65	=65	=65	=65	=65	=65	=65	=65	=65	=65	=65	=65	=65
2.B	-um	.	2.B	-um	.	2.d	-um	.	2.f#	-um	.	2.b	-um	.
4G	et	.	4B	et	.	4B	et	f	4g	et	.	4dd	et	.
=66	=66	=66	=66	=66	=66	=66	=66	=66	=66	=66	=66	=66	=66	=66
4.G	glo-	.	4.B	glo-	.	4.B	glo-	.	4.g	glo-	.	4.dd	glo-	.
8G	-ri-	.	8B	-ri-	.	8B	-ri-	.	8g	-ri-	.	8dd	-ri-	.
2G	-am	.	2B	-am	.	2B	-am	.	2g	-am	.	2dd	-am	.
=67	=67	=67	=67	=67	=67	=67	=67	=67	=67	=67	=67	=67	=67	=67
2E	ple-	.	2B	ple-	.	2c#X	ple-	.	2g	ple-	.	2cc#X	ple-	.
2E#X	-bis	.	2B	-bis	.	2c#	-bis	.	2g#X	-bis	.	2cc#	-bis	.
=68	=68	=68	=68	=68	=68	=68	=68	=68	=68	=68	=68	=68	=68	=68
2F#	tu-	.	2B	tu-	.	(>2B	tu-	.	2f#	tu-	.	(>2dd#X	tu-	.
2F#	-o	.	4A#X	-o	.	4c#X)	.	.	2f#	-o	.	4ee	.	.
.	.	.	[4B	Is-	.	4B	-o	.	.	.	.	4dd#)	-o	.
=69	=69	=69	=69	=69	=69	=69	=69	=69	=69	=69	=69	=69	=69	=69
2F#	Is-	.	4B]	.	.	2.f#	Is-	.	2f#	Is-	.	2.cc#X	Is-	.
.	.	.	8A#XL	.	.	.	.	.	.	.	.	.	.	.
.	.	.	8G#XJ	.	.	.	.	.	.	.	.	.	.	.
2F#	-ra-	.	4A#	.	.	.	.	.	2f#	-ra-	.	.	.	.
.	.	.	4A#	-ra-	.	4e	-ra-	.	.	.	.	4cc#	-ra-	.
=70	=70	=70	=70	=70	=70	=70	=70	=70	=70	=70	=70	=70	=70	=70
2.BB	-el	.	2.B	-el	.	2.d#X	-el	.	2.f#	-el	.	2.b	-el	.
4r	.	.	4r	.	.	4r	.	.	4r	.	.	4r	.	.
!!LO:LB:g=original
=71	=71	=71	=71	=71	=71	=71	=71	=71	=71	=71	=71	=71	=71	=71
2F#	Is-	.	2.B	Is-	.	2.d#X	Is-	.	2f#	Is-	.	2.dd#X	Is-	.
2F#	-ra-	.	.	.	.	.	.	.	2f#	-ra-	.	.	.	.
.	.	.	4A#X	-ra-	.	4e	-ra-	.	.	.	.	4cc	-ra-	.
=72	=72	=72	=72	=72	=72	=72	=72	=72	=72	=72	=72	=72	=72	=72
2.BB	-el	.	2.B	-el	.	2.d#X	-el	.	2.f#	-el	.	2.b	-el	.
4r	.	.	4r	.	.	4r	.	.	4r	.	.	4r	.	.
=73	=73	=73	=73	=73	=73	=73	=73	=73	=73	=73	=73	=73	=73	=73
!LO:TX:a:i:t=dolce	!	!	!	!	!	!	!	!	!	!	!	!LO:TX:a:i:t=dolce	!	!
2.E	nunc	.	2.G	nunc	.	2.B	nunc	.	2.e	nunc	.	2b	nunc	.
.	.	.	.	.	.	.	.	.	.	.	.	[2ee	di-	.
4E	di-	.	4B	di-	.	4B	di-	.	4g	di-	.	.	.	.
=74	=74	=74	=74	=74	=74	=74	=74	=74	=74	=74	=74	=74	=74	=74
2.F#	-mit-	.	2.A	-mit-	.	2.B	-mit-	.	2.a	-mit-	.	2ee]	.	.
.	.	.	.	.	.	.	.	.	.	.	.	4dd#X	-mit-	.
4E	-tis	.	4B	-tis	.	4B	-tis	.	4g	-tis	.	4ee	-tis	.
=75	=75	=75	=75	=75	=75	=75	=75	=75	=75	=75	=75	=75	=75	=75
2D#X	ser-	.	2A	ser-	.	2B	ser-	.	2f#	ser-	.	2ff#	ser-	.
(<4C#X	-vum	.	2A	-vum	.	(>4c#X	-vum	.	(>4e	-vum	.	2a	-vum	.
4D#)	.	.	.	.	.	4B)	.	.	4f#)	.	.	.	.	.
=76	=76	=76	=76	=76	=76	=76	=76	=76	=76	=76	=76	=76	=76	=76
2E	tuum	.	2E	tuum	.	2B	tuum	.	2f#	tuum	.	2a	tuum	.
4E	.	.	4E	.	.	4B	.	.	4e	.	.	4g	.	.
4r	.	.	4r	.	.	4r	.	.	4r	.	.	4r	.	.
=77	=77	=77	=77	=77	=77	=77	=77	=77	=77	=77	=77	=77	=77	=77
2.C	Do-	f	2.G	Do-	f	2.c	Do-	f	2.e	Do-	f	2.ee	Do-	f
4C	-mi-	.	4G	-mi-	.	4c	-mi-	.	4e	-mi-	.	4ee	-mi-	.
=78	=78	=78	=78	=78	=78	=78	=78	=78	=78	=78	=78	=78	=78	=78
2BB	-ne	.	2G	-ne	.	2d	-ne	.	2g	-ne	.	2dd	-ne	.
(<4C	in	p	2G	in	p	4c	in	p	2g	in	p	(>4ee-X	in	p
4BB-X)	.	.	.	.	.	4d	.	.	.	.	.	4dd)	.	.
=79	=79	=79	=79	=79	=79	=79	=79	=79	=79	=79	=79	=79	=79	=79
2AA	pa-	.	1A	pa-	.	2e-X	pa-	.	(>2g	pa-	.	1cc	pa-	.
2D	.	.	.	.	.	2d	.	.	2f#X)	.	.	.	.	.
=80	=80	=80	=80	=80	=80	=80	=80	=80	=80	=80	=80	=80	=80	=80
2GG	-ce	.	2B	-ce	.	2d	-ce	.	2g	-ce	.	2b	-ce	.
2r	.	.	2r	.	.	2r	.	.	4r	.	.	2r	.	.
!	!	!	!	!	!	!	!	!	!LO:TX:a:i:t=dolce	!	!	!	!	!
.	.	.	.	.	.	.	.	.	4b	A-	.	.	.	.
!!LO:PB:g=original
=81	=81	=81	=81	=81	=81	=81	=81	=81	=81	=81	=81	=81	=81	=81
1r	.	.	1r	.	.	1r	.	.	4cc	.	.	2r	.	.
.	.	.	.	.	.	.	.	.	4b	.	.	.	.	.
.	.	.	.	.	.	.	.	.	4a	.	.	4r	.	.
.	.	.	.	.	.	.	.	.	4g	.	.	4b	A-	.
=82	=82	=82	=82	=82	=82	=82	=82	=82	=82	=82	=82	=82	=82	=82
1r	.	.	2r	.	.	1r	.	.	4a	-men	.	4cc	.	.
.	.	.	.	.	.	.	.	.	(>4g	A-	.	4b	.	.
.	.	.	4r	.	.	.	.	.	4f#	.	.	4a	.	.
.	.	.	4B	A-	.	.	.	.	4e)	.	.	4g	.	.
=83	=83	=83	=83	=83	=83	=83	=83	=83	=83	=83	=83	=83	=83	=83
1r	.	.	4c	.	.	2r	.	.	4d#X	.	.	4f#	.	.
.	.	.	4B	.	.	.	.	.	4e	-men	.	4g	-men	.
.	.	.	4A	.	.	4r	.	.	[2e	A-	.	4cc	A-	.
.	.	.	4G	.	.	4B	A-	.	.	.	.	4b	.	.
=84	=84	=84	=84	=84	=84	=84	=84	=84	=84	=84	=84	=84	=84	=84
2r	.	.	4A	.	.	4c	.	.	2e]	.	.	4a	.	.
.	.	.	4G	-men	.	4B	.	.	.	.	.	4b	-men	.
4r	.	.	4F#	A-	.	4A	.	.	4d#X	.	.	[2b	A-	.
4E	A-	.	[4E	.	.	4G	.	.	4e	.	.	.	.	.
=85	=85	=85	=85	=85	=85	=85	=85	=85	=85	=85	=85	=85	=85	=85
4D	.	.	1E_	.	.	4G#X	.	.	4e	.	.	4b]	.	.
4C	.	.	.	.	.	4A	-men	.	4a	.	.	4cc	.	.
4BB	.	.	.	.	.	4B	A-	.	4g#X	.	.	4dd	.	.
4AA	.	.	.	.	.	4c	.	.	4a	.	.	4cc	.	.
=86	=86	=86	=86	=86	=86	=86	=86	=86	=86	=86	=86	=86	=86	=86
2GG#X	.	.	2E]	.	.	2B	.	.	2b	.	.	2dd	.	.
4AA	-men	.	4E	-men	.	4c	-men	.	4a	-men	.	4cc	-men	.
4C	A-	.	4A	A-	.	[4e	A-	.	[4e	A-	.	4a	A-	.
=87	=87	=87	=87	=87	=87	=87	=87	=87	=87	=87	=87	=87	=87	=87
1BB	.	.	2.G	.	.	(>2.e]	.	.	2.e]	.	.	2.g	.	.
.	.	.	8AL	.	.	8f#L	.	.	(>8d#XL	.	.	(<8f#L	.	.
.	.	.	8GJ	.	.	8eJ)	.	.	8eJ)	.	.	8gJ)	.	.
!!LO:LB:g=original
=88	=88	=88	=88	=88	=88	=88	=88	=88	=88	=88	=88	=88	=88	=88
2BB	-men	.	2F#	-men	.	2d#X	-men	.	2f#	-men	.	2a	-men	.
2r	.	.	4r	.	.	2r	.	.	2r	.	.	2r	.	.
.	.	.	4B	A-	.	.	.	.	.	.	.	.	.	.
=89	=89	=89	=89	=89	=89	=89	=89	=89	=89	=89	=89	=89	=89	=89
!	!	!	!LO:TX:a:i:t=dolce	!	!	!	!	!	!	!	!	!	!	!
1r	.	.	4c	.	.	2r	.	.	1r	.	.	1r	.	.
.	.	.	4B	.	.	.	.	.	.	.	.	.	.	.
.	.	.	4A	.	.	4r	.	.	.	.	.	.	.	.
.	.	.	4G	.	.	4B	A-	.	.	.	.	.	.	.
=90	=90	=90	=90	=90	=90	=90	=90	=90	=90	=90	=90	=90	=90	=90
1r	.	.	4A	-men	.	4c	.	.	2r	.	.	1r	.	.
.	.	.	4G	A-	.	4B	.	.	.	.	.	.	.	.
.	.	.	4F#	.	.	4A	.	.	4r	.	.	.	.	.
.	.	.	4E	.	.	4G	.	.	4b	A-	.	.	.	.
=91	=91	=91	=91	=91	=91	=91	=91	=91	=91	=91	=91	=91	=91	=91
1r	.	.	4D#X	.	.	4F#	.	.	4cc	.	.	2r	.	.
.	.	.	4E	-men	.	4G	-men	.	4b	.	.	.	.	.
.	.	.	[2E	A-	.	4c	A-	.	4a	.	.	4r	.	.
.	.	.	.	.	.	4B	.	.	4g	.	.	4b	A-	.
=92	=92	=92	=92	=92	=92	=92	=92	=92	=92	=92	=92	=92	=92	=92
2r	.	.	2E]	.	.	4A	.	.	4a	-men	.	4cc	.	.
.	.	.	.	.	.	4B	-men	.	(>4g	A-	.	4b	.	.
4r	.	.	4D#X	.	.	[2B	A-	.	4f#	.	.	4a	.	.
4E	A-	.	[4E	.	.	.	.	.	[4e)	.	.	4g	.	.
=93	=93	=93	=93	=93	=93	=93	=93	=93	=93	=93	=93	=93	=93	=93
4D	.	.	4E]	.	.	4B]	.	.	1e_	.	.	4g#X	.	.
4C	.	.	4A	.	.	4c	.	.	.	.	.	4a	-men	.
4BB	.	.	4G#X	.	.	4d	.	.	.	.	.	4b	A-	.
4AA	.	.	4A	.	.	4c	.	.	.	.	.	4cc	.	.
=94	=94	=94	=94	=94	=94	=94	=94	=94	=94	=94	=94	=94	=94	=94
2GG#X	.	.	2B	.	.	2B	.	.	2e]	.	.	2dd	.	.
4AA	-men	.	4A	-men	.	4c	-men	.	4e	-men	.	4cc	-men	.
4C	A-	.	4A	A-	.	4A	A-	.	4e	A-	.	[4ee	A-	.
!!LO:LB:g=original
=95	=95	=95	=95	=95	=95	=95	=95	=95	=95	=95	=95	=95	=95	=95
1BB	.	.	(<2G	.	.	1B	.	.	(>2g	.	.	2.ee]	.	.
.	.	.	2A)	.	.	.	.	.	2f#	.	.	.	.	.
.	.	.	.	.	.	.	.	.	.	.	.	4dd#X	.	.
=96	=96	=96	=96	=96	=96	=96	=96	=96	=96	=96	=96	=96	=96	=96
2C	-men	.	2G	-men	.	2e	-men	.	2e)	-men	.	2ee	-men	.
4r	.	.	4r	.	.	4r	.	.	4r	.	.	4r	.	.
4C	A-	.	[4G	A-	.	4A#X	A-	.	(>4e	A-	.	[4ee	A-	.
=97	=97	=97	=97	=97	=97	=97	=97	=97	=97	=97	=97	=97	=97	=97
1BB	.	.	2G]	.	.	1B	.	.	2g	.	.	(>2.ee]	.	.
.	.	.	2A	.	.	.	.	.	2f#	.	.	.	.	.
.	.	.	.	.	.	.	.	.	.	.	.	4dd#X	.	.
=98	=98	=98	=98	=98	=98	=98	=98	=98	=98	=98	=98	=98	=98	=98
2.E	-men	.	[2G	-men	.	2.B	-men	.	[2g)	-men	.	2.ee)	-men	.
.	.	.	8G]	.	.	.	.	.	8g]	.	.	.	.	.
.	.	.	(<8EL	A-	.	.	.	.	(>8eL	A-	.	.	.	.
4r	.	.	8G	.	.	4r	.	.	8g	.	.	4r	.	.
.	.	.	8BJ)	.	.	.	.	.	8bJ	.	.	.	.	.
=99	=99	=99	=99	=99	=99	=99	=99	=99	=99	=99	=99	=99	=99	=99
1AA 1A	A-	.	1A	.	.	1e	A-	.	1a)	.	.	1cc	A-	.
=100	=100	=100	=100	=100	=100	=100	=100	=100	=100	=100	=100	=100	=100	=100
1E;	-men.	.	1B;	-men.	.	1e;	-men.	.	1g#X;	-men.	.	1b;	-men.	.
==	==	==	==	==	==	==	==	==	==	==	==	==	==	==
*-	*-	*-	*-	*-	*-	*-	*-	*-	*-	*-	*-	*-	*-	*-
!!!system-decoration: [(s1,s2,s3,s4,s5)]
!!!RDF**kern: > = above
!!!RDF**kern: < = below
!!!ENC: Andrzej Borzym
!!!END: 2020-01-27
!!!ENC: Anna Matuszewska
!!!END: 2020-02-26
